packages/core/src/svgs/safemars.svg

<svg width="24" height="24" viewBox="0 0 24 24" fill="none" xmlns="http://www.w3.org/2000/svg">
<g clip-path="url(#clip0_31_18244)">
<path d="M0 0H24V24H0V0Z" fill="url(#paint0_linear_31_18244)"/>
<path fill-rule="evenodd" clip-rule="evenodd" d="M17.0228 8.50307C16.5739 7.62635 15.8929 6.88974 15.054 6.37356C14.2151 5.85739 13.2506 5.58148 12.2656 5.57592H12.2528C9.16707 5.57592 7.37564 7.52592 6.89564 8.52449L6.83993 8.6445H6.70707C6.5785 8.6445 6.4585 8.73021 6.34707 8.89735C6.23993 9.06021 6.17564 9.25735 6.13279 9.38164L6.11564 9.45878L5.2285 10.0288V8.31449C5.2285 8.29347 5.22015 8.2733 5.20528 8.25843C5.19041 8.24356 5.17024 8.23521 5.14922 8.23521C5.12819 8.23521 5.10802 8.24356 5.09315 8.25843C5.07828 8.2733 5.06993 8.29347 5.06993 8.31449V10.0545L4.71422 10.5174V12.8916C4.71422 12.9602 4.75707 13.0845 4.85564 13.2688C4.95422 13.4402 5.09136 13.6416 5.24993 13.8431C5.56279 14.2502 5.94422 14.6574 6.19279 14.9145L6.25707 14.9745V15.0602C6.25707 15.6902 6.68136 16.2174 6.89136 16.4016L6.92564 16.4316L6.94707 16.4745C7.67993 18.0302 9.34707 18.4288 10.0928 18.4288H14.3442C15.0299 18.4288 15.6385 18.0902 16.1228 17.6445C16.5347 17.2627 16.8745 16.8097 17.1256 16.3074L17.1514 16.2559L17.1942 16.2259C17.4085 16.0631 17.5628 15.8231 17.6656 15.5702C17.7642 15.3216 17.8071 15.0774 17.8156 14.9402L17.8199 14.8416L17.8971 14.7816C18.6171 14.2288 19.1142 13.2859 19.2856 12.8574V10.5002C19.171 10.3272 19.0292 10.1738 18.8656 10.0459C18.6985 9.9045 18.5271 9.78878 18.4071 9.71592H18.0428L17.9999 9.55307C17.9554 9.337 17.8546 9.13648 17.7079 8.97171C17.5612 8.80694 17.3737 8.68374 17.1642 8.6145L17.0699 8.59307L17.0228 8.50735V8.50307ZM17.3571 8.2245C16.8643 7.29649 16.1288 6.51969 15.2291 5.97699C14.3294 5.4343 13.2992 5.14607 12.2485 5.14307C9.07707 5.14307 7.17422 7.0845 6.56564 8.2245C6.29993 8.27592 6.11136 8.47307 5.99136 8.65307C5.87136 8.83735 5.79422 9.03878 5.74707 9.18021L5.65707 9.24021V8.31449C5.65707 8.1798 5.60357 8.05063 5.50833 7.95539C5.41308 7.86014 5.28391 7.80664 5.14922 7.80664C5.01452 7.80664 4.88535 7.86014 4.79011 7.95539C4.69486 8.05063 4.64136 8.1798 4.64136 8.31449V9.91307L4.28564 10.3716V12.8916C4.28564 13.0759 4.37136 13.2859 4.48279 13.4788C4.59422 13.6759 4.74422 13.8945 4.91136 14.1045C5.21136 14.4988 5.57136 14.8888 5.83279 15.1545C5.88382 15.7428 6.1492 16.2919 6.5785 16.6974C7.41422 18.4288 9.26993 18.8574 10.0928 18.8574H14.3442C15.1799 18.8574 15.8828 18.4459 16.4142 17.9574C16.9285 17.4859 17.2971 16.9288 17.4899 16.5388C17.7482 16.323 17.9461 16.0439 18.0642 15.7288C18.1628 15.4845 18.2142 15.2402 18.2356 15.0602C18.8805 14.4868 19.3824 13.7706 19.7014 12.9688L19.7142 12.9302V10.3931L19.6928 10.3502C19.5516 10.1036 19.3638 9.88668 19.1399 9.71164C18.9299 9.53592 18.7114 9.39021 18.5699 9.31307L18.5228 9.28307H18.3728C18.294 9.04159 18.1618 8.82099 17.9859 8.63771C17.81 8.45443 17.5951 8.31318 17.3571 8.2245Z" fill="#F7F7F7"/>
<path d="M4.97137 12.9127L4.8728 10.4484L5.04423 10.3069V10.9284C5.21995 10.9841 5.55852 10.9798 5.52423 10.5127C5.48995 10.0412 5.44709 10.1441 5.42995 10.2555C5.45137 10.3884 5.45995 10.6669 5.33137 10.7141C5.27489 10.7346 5.21772 10.7532 5.15995 10.7698C5.21995 10.7441 5.30566 10.6541 5.30566 10.4227V10.0455L5.48137 9.92552C5.8928 9.6298 5.93995 9.80552 5.91423 9.92552C5.73852 10.3841 5.3828 11.4041 5.3828 11.8498V13.6455L4.97137 12.9169V12.9127Z" fill="url(#paint1_linear_31_18244)"/>
<path d="M13.5428 7.87287V8.07002C10.8942 7.65859 7.97136 8.73859 6.83993 9.33002C6.6385 9.77573 6.23993 10.9157 6.23993 11.9143C6.23993 12.9172 6.6985 14.1257 6.92565 14.6057C8.41708 15.6429 10.9799 15.8614 12.0814 15.84C12.2099 15.99 12.0642 16.2514 11.9785 16.3672C8.72136 16.3672 6.83565 15.1929 6.29565 14.61C6.13708 14.2843 5.82422 13.29 5.82422 11.9143C5.82422 10.5429 6.31708 9.39859 6.56565 9.00002C8.30993 8.37002 10.1699 7.73145 12.0428 7.73145C12.8742 7.73145 13.3885 7.82573 13.5428 7.87287Z" fill="url(#paint2_linear_31_18244)"/>
<path d="M12.7415 16.5731C9.45003 16.5731 7.4186 15.8531 6.8186 15.4888V15.7373C7.43575 17.5588 12.2143 17.3059 12.7115 17.3059C13.2086 17.3059 13.2086 17.1131 13.2086 16.8216C13.2086 16.5859 12.8957 16.5602 12.7415 16.5731Z" fill="url(#paint3_linear_31_18244)"/>
<path d="M11.0829 18.287C10.8 18.287 9.8486 18.4156 8.59717 17.9528C7.61146 17.5885 7.24289 16.8899 7.17432 16.5728C7.84717 17.2113 9.9386 17.4299 10.9029 17.4599H13.0886C13.2943 17.4256 13.6929 17.447 13.6929 17.8242C13.6929 18.2013 13.4272 18.2956 13.2943 18.287H11.0829Z" fill="url(#paint4_linear_31_18244)"/>
<path d="M16.7272 14.4428C15.2229 15.2271 12.7501 15.54 11.7043 15.5957C13.9715 15.78 16.1615 14.9828 16.9715 14.5671C17.1943 14.0742 17.6401 12.81 17.6401 11.6785C17.6401 10.5514 17.1172 9.56138 16.8515 9.20567C15.8671 8.77375 14.8219 8.4962 13.7529 8.38281C14.9143 8.60996 16.2558 9.21424 16.7786 9.48853C17.1258 9.74138 17.3401 11.0528 17.4043 11.6785C17.4043 13.11 16.9543 14.1214 16.7272 14.4471V14.4428Z" fill="#F5F5F5"/>
<path d="M18.1929 10.0628L18.3943 10.8685C18.84 10.4999 18.9257 10.9542 18.9857 11.2371C19.0372 11.4599 19.1486 11.8199 19.2 11.9742V10.4871C19.14 10.4185 18.9429 10.2085 18.6386 9.92138C18.33 9.63852 18.21 9.70709 18.1929 9.77995V10.0628Z" fill="#C8C8C8"/>
<path d="M7.60297 8.38718C7.43154 8.43861 7.28583 8.43432 7.2344 8.43004C7.17011 8.28861 7.20869 8.18575 7.2344 8.15147C7.35869 7.95432 7.86869 7.38004 8.93154 6.62147C9.9944 5.8629 11.4173 5.75575 11.9915 5.79861C12.2101 5.90575 12.703 6.15004 12.9173 6.27861C13.1873 6.45004 13.5044 6.69004 13.5044 7.05004C13.5044 7.34575 13.033 7.46575 12.793 7.48718H11.9915C9.69011 7.48718 7.82154 8.3229 7.60297 8.38718Z" fill="url(#paint5_linear_31_18244)"/>
<path d="M14.8029 7.75699C14.5528 7.0959 14.1222 6.51827 13.5601 6.08984C14.8715 6.3127 15.5229 7.46556 15.6858 8.01841L14.8029 7.75699ZM14.8843 8.37841L14.9058 8.04413L15.6901 8.26699V8.61842L14.8843 8.37841Z" fill="#E44645"/>
<path d="M8.04857 10.3415C7.44857 11.8972 7.94143 13.573 8.26285 14.2158C7.81285 12.8872 8.07428 11.1258 8.26285 10.4058L9.78 9.67725C8.80285 9.80582 8.21571 10.1744 8.04857 10.3415Z" fill="#F5F5F5"/>
<path d="M9.11151 10.8213C9.11151 11.2799 8.81151 11.5156 8.65723 11.5756C8.80723 11.6613 9.11151 11.9184 9.11151 12.2913C9.15437 12.0513 9.29151 11.5756 9.54866 11.5756C9.27008 11.4599 9.14151 11.027 9.11151 10.8213Z" fill="#F5F5F5"/>
<path d="M7.09282 12.0341C7.06931 12.8655 7.30932 13.6831 7.77853 14.3698C7.28743 12.9394 7.28743 11.386 7.77853 9.95552C8.33567 9.61267 10.0114 8.9141 12.3128 8.9141C14.6142 8.9141 15.3642 10.2427 15.4542 10.9027V12.9684C15.4542 13.7141 15.0685 14.1684 14.88 14.297L13.3628 14.9741L15.6771 14.3012C15.8485 13.9155 16.2 12.9941 16.2 12.4241C16.2 11.7084 16.0285 10.8041 16.2857 10.8041C16.5342 10.8041 16.5642 11.3055 16.5642 12.1927C16.5642 12.9041 16.32 13.9412 16.2 14.3698C16.723 13.7383 17.0014 12.9396 16.9842 12.1198C16.9842 10.9627 16.5985 10.0155 16.41 9.68553C15.9728 9.3341 14.5671 8.62695 12.4114 8.62695C10.2557 8.62695 8.32282 9.3341 7.62425 9.68553C7.2522 10.4112 7.06941 11.219 7.09282 12.0341Z" fill="#E44645"/>
</g>
<defs>
<linearGradient id="paint0_linear_31_18244" x1="4.46571" y1="4.16143" x2="29.2071" y2="32.58" gradientUnits="userSpaceOnUse">
<stop stop-color="#1A1E21"/>
<stop offset="1" stop-color="#06060A"/>
</linearGradient>
<linearGradient id="paint1_linear_31_18244" x1="5.39566" y1="9.76266" x2="5.39566" y2="13.6455" gradientUnits="userSpaceOnUse">
<stop stop-color="#FEFEFE"/>
<stop offset="1" stop-color="#B6B6B6"/>
</linearGradient>
<linearGradient id="paint2_linear_31_18244" x1="6.8485" y1="8.78573" x2="12.3214" y2="16.0929" gradientUnits="userSpaceOnUse">
<stop stop-color="#D7D7D7"/>
<stop offset="0.61" stop-color="#BABABA"/>
<stop offset="1" stop-color="#8A8A8A"/>
</linearGradient>
<linearGradient id="paint3_linear_31_18244" x1="7.90717" y1="16.2645" x2="9.31718" y2="16.8045" gradientUnits="userSpaceOnUse">
<stop offset="0.69" stop-color="#C4C4C4"/>
<stop offset="1" stop-color="#959595"/>
</linearGradient>
<linearGradient id="paint4_linear_31_18244" x1="8.66575" y1="17.387" x2="10.4486" y2="18.2742" gradientUnits="userSpaceOnUse">
<stop stop-color="#D1D1D1"/>
<stop offset="0.29" stop-color="#858585"/>
</linearGradient>
<linearGradient id="paint5_linear_31_18244" x1="8.02297" y1="8.11718" x2="13.003" y2="8.5029" gradientUnits="userSpaceOnUse">
<stop stop-color="#FCFCFC"/>
<stop offset="1" stop-color="#BABABA"/>
</linearGradient>
<clipPath id="clip0_31_18244">
<rect width="24" height="24" fill="white"/>
</clipPath>
</defs>
</svg>

<svg xmlns="http://www.w3.org/2000/svg" width="24" height="24" fill="none" viewBox="0 0 24 24"><g clip-path="url(#a)"><path fill="url(#b)" d="M0 0h24v24H0z"/><path fill="#F7F7F7" fill-rule="evenodd" d="M17.023 8.503a5.38 5.38 0 0 0-4.757-2.927h-.013c-3.086 0-4.877 1.95-5.357 2.948l-.056.12h-.133q-.192.001-.36.253c-.107.163-.171.36-.214.485l-.017.077-.887.57V8.314a.08.08 0 0 0-.16 0v1.74l-.355.463v2.375c0 .068.043.193.142.377.098.171.235.373.394.574.313.407.694.814.943 1.072l.064.06v.085c0 .63.424 1.157.634 1.342l.035.03.021.043c.733 1.555 2.4 1.954 3.146 1.954h4.251c.686 0 1.295-.339 1.779-.784a4.7 4.7 0 0 0 1.003-1.338l.025-.051.043-.03c.215-.163.369-.403.472-.656.098-.248.141-.493.15-.63l.004-.098.077-.06c.72-.553 1.217-1.496 1.389-1.925V10.5a2 2 0 0 0-.42-.454 4 4 0 0 0-.459-.33h-.364L18 9.553a1.25 1.25 0 0 0-.836-.939l-.094-.02-.047-.087zm.334-.278a5.8 5.8 0 0 0-5.108-3.082c-3.172 0-5.075 1.942-5.683 3.082-.266.05-.455.248-.575.428a2.3 2.3 0 0 0-.244.527l-.09.06v-.926a.508.508 0 1 0-1.016 0v1.6l-.355.458v2.52c0 .184.085.394.197.587.111.197.261.416.428.626.3.394.66.784.922 1.05.05.588.316 1.137.745 1.542.836 1.732 2.692 2.16 3.515 2.16h4.251c.836 0 1.539-.411 2.07-.9a5.1 5.1 0 0 0 1.076-1.418c.258-.216.456-.495.574-.81a2.7 2.7 0 0 0 .172-.669A5.54 5.54 0 0 0 19.7 12.97l.013-.039v-2.537l-.021-.043a2.2 2.2 0 0 0-.553-.638 4 4 0 0 0-.57-.399l-.047-.03h-.15a1.69 1.69 0 0 0-1.016-1.058" clip-rule="evenodd"/><path fill="url(#c)" d="m4.971 12.913-.098-2.465.171-.141v.621c.176.056.515.052.48-.415-.034-.472-.077-.369-.094-.258.021.133.03.412-.099.46q-.084.03-.171.055c.06-.026.146-.116.146-.347v-.377l.175-.12c.412-.296.459-.12.433 0-.175.458-.531 1.478-.531 1.924v1.796l-.412-.73z"/><path fill="url(#d)" d="M13.543 7.873v.197c-2.649-.411-5.572.669-6.703 1.26-.202.446-.6 1.586-.6 2.584 0 1.003.458 2.212.686 2.692 1.491 1.037 4.054 1.255 5.155 1.234.129.15-.017.411-.102.527-3.258 0-5.143-1.174-5.683-1.757-.159-.326-.472-1.32-.472-2.696 0-1.371.493-2.515.742-2.914 1.744-.63 3.604-1.269 5.477-1.269.831 0 1.346.095 1.5.142"/><path fill="url(#e)" d="M12.742 16.573c-3.292 0-5.323-.72-5.923-1.084v.248c.617 1.822 5.395 1.569 5.892 1.569s.498-.193.498-.484c0-.236-.313-.262-.467-.249"/><path fill="url(#f)" d="M11.083 18.287c-.283 0-1.234.129-2.486-.334-.986-.364-1.354-1.063-1.423-1.38.673.638 2.765.857 3.729.887h2.186c.205-.034.604-.013.604.364s-.266.472-.399.463z"/><path fill="#F5F5F5" d="M16.727 14.443c-1.504.784-3.977 1.097-5.023 1.153 2.268.184 4.458-.613 5.267-1.029.223-.493.67-1.757.67-2.889 0-1.127-.524-2.117-.79-2.472-.984-.432-2.03-.71-3.098-.823 1.161.227 2.503.831 3.026 1.106.347.252.561 1.564.625 2.19 0 1.431-.45 2.442-.677 2.768z"/><path fill="#C8C8C8" d="m18.193 10.063.201.805c.446-.368.532.086.592.37.051.222.163.582.214.736v-1.487a10 10 0 0 0-.561-.566c-.309-.282-.429-.214-.446-.141z"/><path fill="url(#g)" d="M7.603 8.387a1 1 0 0 1-.369.043c-.064-.141-.025-.244 0-.279.125-.197.635-.771 1.698-1.53 1.062-.758 2.485-.865 3.06-.822.218.107.711.351.925.48.27.171.587.411.587.771 0 .296-.471.416-.711.437h-.801c-2.302 0-4.17.836-4.389.9"/><path fill="#E44645" d="M14.803 7.757A3.8 3.8 0 0 0 13.56 6.09c1.311.223 1.963 1.376 2.126 1.928zm.081.621.022-.334.784.223v.351z"/><path fill="#F5F5F5" d="M8.049 10.342c-.6 1.555-.108 3.231.214 3.874-.45-1.329-.189-3.09 0-3.81l1.517-.729c-.977.129-1.564.497-1.731.665"/><path fill="#F5F5F5" d="M9.112 10.821c0 .459-.3.695-.455.755.15.085.455.342.455.715.042-.24.18-.715.437-.715-.279-.116-.407-.549-.437-.755"/><path fill="#E44645" d="M7.093 12.034a3.94 3.94 0 0 0 .686 2.336 6.8 6.8 0 0 1 0-4.414c.557-.343 2.232-1.042 4.534-1.042s3.051 1.329 3.141 1.989v2.065c0 .746-.386 1.2-.574 1.329l-1.517.677 2.314-.673c.172-.386.523-1.307.523-1.877 0-.716-.171-1.62.086-1.62.248 0 .278.502.278 1.389 0 .711-.244 1.748-.364 2.177.523-.632.801-1.43.784-2.25 0-1.157-.386-2.104-.574-2.434-.437-.352-1.843-1.059-3.999-1.059-2.155 0-4.088.707-4.787 1.059a4.84 4.84 0 0 0-.531 2.348"/></g><defs><linearGradient id="b" x1="4.466" x2="29.207" y1="4.161" y2="32.58" gradientUnits="userSpaceOnUse"><stop stop-color="#1A1E21"/><stop offset="1" stop-color="#06060A"/></linearGradient><linearGradient id="c" x1="5.396" x2="5.396" y1="9.763" y2="13.646" gradientUnits="userSpaceOnUse"><stop stop-color="#FEFEFE"/><stop offset="1" stop-color="#B6B6B6"/></linearGradient><linearGradient id="d" x1="6.848" x2="12.321" y1="8.786" y2="16.093" gradientUnits="userSpaceOnUse"><stop stop-color="#D7D7D7"/><stop offset=".61" stop-color="#BABABA"/><stop offset="1" stop-color="#8A8A8A"/></linearGradient><linearGradient id="e" x1="7.907" x2="9.317" y1="16.265" y2="16.805" gradientUnits="userSpaceOnUse"><stop offset=".69" stop-color="#C4C4C4"/><stop offset="1" stop-color="#959595"/></linearGradient><linearGradient id="f" x1="8.666" x2="10.449" y1="17.387" y2="18.274" gradientUnits="userSpaceOnUse"><stop stop-color="#D1D1D1"/><stop offset=".29" stop-color="#858585"/></linearGradient><linearGradient id="g" x1="8.023" x2="13.003" y1="8.117" y2="8.503" gradientUnits="userSpaceOnUse"><stop stop-color="#FCFCFC"/><stop offset="1" stop-color="#BABABA"/></linearGradient><clipPath id="a"><path fill="#fff" d="M0 0h24v24H0z"/></clipPath></defs></svg>
